X:1
T:Psalm 91. 
T:This goet te belyden God om zyn weldaet
T:Cornelis Boscoop, 1531 - 1573
T:Psalm 91. This goet te belyden God om zyn weldaet
T:(C) Wim Looyestijn - 2018
T:(C) Wim Looyestijn - 2018
T:(C) Wim Looyestijn - 2018
T:(C) Wim Looyestijn - 2018
T:(C) Wim Looyestijn - 2018
T:(C) Wim Looyestijn - 2018
T:(C) Wim Looyestijn - 2018
C:Cornelis Boscoop, 1531 - 1573
Z:(C) Wim Looyestijn - 2018
%%score [ 1 2 3 4 ]
L:1/8
Q:1/4=180
M:4/2
K:F
V:1 treble nm="Superius" snm="S"
V:2 treble nm="Tenor" snm="T"
V:3 alto1 nm="Contra Tenor" snm="CT"
V:4 alto nm="Bassus" snm="B"
V:1
 x16 | z16 | x16 | z16 | z8 F8 | c4 c2 c2 c4 A4 | c6 B2 A2 G2 A4 | F4 B4 A4 c4 | F4 A4 B4 F2 G2 | %9
w: ||||This|goet te be- ly- den|God om zyn _ wel-|daet, om zyn wel-|daet, this goet te be-|
 A2 B2 c8 B4- | B4 A8 G4- | G2 F2 F8 E4 | F4 F4 F2 F2 F2 G2 | A4 A4 B4 A4 | G4 G4 c6 B2 | %15
w: ly- * den God|_ om zyn|_ _ _ wel-|daet, u naem te sin- gen|gy zyt grot ge-|acht, u naem te|
 A2 G2 A8 G2 F2 | A4 G4 z4 F4 | c2 c2 c2 c2 d4 c4 | f4 d4 e8- | c8 z4 c4- | c2 B2 A2 G2 F8 | %21
w: sin- * * * *|* gen, u|naem te sin- gen gy zyt|grot ge- acht,|_ gy|_ zyt grot ge- acht,|
 z4 F4 c4 c2 c2 | c4 A4 c6 B2 | A4 G4 F4 f4- | f2 ed e4 f8- | f8 z4 F4 | f4 f2 f2 f4 d4 | %27
w: u goet- heit te|pre- ken in den|da- ge- raet, da-|* * * ge- raet,|_ u|goet- heit te pre- ken|
 f6 e2 d4 d4 | c16- | c8 z4 c4 | c2 c2 c2 c2 d4 c4 | f4 f4 d4 f4- | f4 e2 d2 e8 | z4 c8 B4 | %34
w: in den da- ge-|raet,|_ u|war- heit te ver- tel- len|in der nacht, in|_ der _ nacht,|in der|
 c2 d2 e2 c2 d2 e2 f4- | f4 e4 f4 A4 | A4 B4 c4 c4 | c4 A4 G4 G4 | F16- | F8 z4 f4 | %40
w: nacht, _ _ _ _ _ in|_ der nacht, u|war- heit te ver-|tel- len in der|nacht.|_ Met|
 f4 f2 d2 e2 c2 d2 d2 | c4 c4 d4 c2 A2 | B2 A2 G2 G2 A4 A4 | B4 d4 c4 e4 | f4 f2 d2 e2 c2 d4- | %45
w: her- pen ge- clanck, met lof en|sang, met her- pen ge-|clanck, met lof en sang, met|lof en sang, met|her- pen ge- clanck, met lof|
 d2 c2 c8 =B4 | c16- | c16 | z4 c4 A6 B2 | c4 F4 z4 f4 | e4 d6 c2 c4- | c4 B4 c8 | z8 z4 f4 | %53
w: _ _ _ en|sang|_|laet ons hier|pry- sen o|Heer u _ gro-|* te cracht,|o|
 e4 c4 d4 c4 | A2 B2 c2 d2 e2 f2 g4- | g4 f4 e4 c4 | d4 B4 c4 f4 | e4 d6 c2 c4- | c4 B4 c4 c4 | %59
w: Heer u gro- te|cracht, _ _ _ _ _ _|_ o Heer u|gro- te cracht, o|Heer u _ gro-|* te cracht, o|
 B4 G4 d4 A4 | c4 G4 B2 A4 GF | G4 G4 F4 c4 | d6 e2 f8 | F16- | F16 |] %65
w: Heer u gro- te|cracht, u gro- * te _|cracht, o Heer u|gro- * te|cracht.|_|
V:2
 x16 | z16 | x16 | F8 c4 c2 c2 | c4 A4 c6 B2 | A4 G4 F4 f4- | f2 ed e4 f8- | f8 z4 F4 | %8
w: |||This goet te be-|ly- den God om|zyn wel- daet, zyn|_ _ _ wel- daet,|_ this|
 f4 f2 f2 f4 d4 | f6 e2 d4 d4 | c16- | c8 z4 c4 | c2 c2 c2 c2 d4 c4 | f4 f4 d4 f4- | f4 e2 d2 e8 | %15
w: goet te be- ly- den|God om zyn wel-|daet,|_ u|naem te sin- gen gy zyt|grot ge- acht, grot|_ ge- * acht,|
 z4 c8 =B4 | c2 d2 e2 c2 d2 e2 f4- | f4 e4 f4 A4 | A4 B4 c4 c4 | c4 A4 G4 G4 | F4 c4 d4 c4- | %21
w: gy zyt|grot _ _ _ _ _ _|_ ge- acht, u|naem te sin- gen,|gy zyt grot ge-|acht, gy zyt grot|
 c4 B8 A2 G2 | A4 z4 F8 | c4 c2 c2 c4 A4 | c6 B2 A2 G2 A4 | F4 B4 A4 c4 | F6 GA B4 F2 G2 | %27
w: _ _ ge- *|acht, u|goet- heit te pre- ken|in den da- * ge-|raet, te pre- ken|in den _ da- ge- *|
 A2 B2 c8 B4- | B4 A8 G4- | G2 F2 F8 E4 | F4 F4 F2 F2 F2 G2 | A4 A4 B4 A4 | G4 G4 c6 B2 | %33
w: raet, _ _ in|_ den da-|* * * ge-|raet, u war- heit te ver-|tel- len in der|nacht, u war- heit|
 A2 G2 A8 G2 F2 | A4 G4 z4 F4 | c2 c2 c2 c2 d4 c4 | f4 d4 e8 | c8 z4 c4 | c4 c2 B2 A4 c4 | %39
w: te ver- tel- * *|* len u|war- heit te ver- tel- len|in der nacht.|_ Met|her- pen ge- clanck, met|
 d4 d2 c2 B4 A4 | d2 c4 B2 c2 c2 B2 G2 | A4 f4 f4 f2 f2 | d2 f2 e2 e2 c4 c4 | d2 c2 B2 A2 G4 c4 | %44
w: her- pen ge- clanck, met|lof _ en sang, met lof en|sang, met her- pen ge-|clanck, met lof en sang, met|lof _ en _ sang, met|
 c4 d2 d2 c4 B4 | G4 A4 G4 G4 | E4 F4 G4 E4 | A4 G6 F2 F4- | F4 E4 F4 c4 | A6 B2 c4 F4 | %50
w: her- pen ge- clanck, met|lof en sang, met|lof en sang laet|ons hier _ pry-|* * sen, laet|ons hier pry- sen|
 z4 f4 e4 c4 | d6 e2 f4 F4 | G6 A2 B4 A4 | G4 F8 E4 | F8 z4 c4 | B4 A4 G6 A2 | B2 c2 d6 c2 c4- | %57
w: o Heer u|gro- te cracht, o|Heer _ _ u|gro- * te|cracht, o|Heer u gro- *||
 c4 B4 c4 A4 | A4 G2 F2 G8 | z8 z4 f4 | e4 c4 d4 B4 | c8 A8 | B4 B4 A6 B2 | c4 A4 d4 d4 | c16 |] %65
w: * te cracht, u|gro- te _ cracht,|o|Heer u gro- te|cracht, o|Heer u gro- te|cracht, u gro- te|cracht.|
V:3
 x16 | z16 | x16 | z8 C8 | F4 F2 G2 A6 G2 | F4 E4 A4 F4 | G8 z4 c4 | A4 d4 c2 B2 A2 G2 | %8
w: |||This|goet te be- ly- den|God om zyn wel-|daet, om|zyn wel- daet, _ _ _|
 A4 d4 d4 B4 | c4 F4 G4 G2 F2 | E4 F4 F4 E4 | A4 A4 G8 | A8 z4 F4 | F2 F2 F2 F2 G4 F4 | %14
w: _ om zyn wel-|daet, this goet te be-|ly- den God om|zyn wel- daet,|_ u|naem te sin- gen gy zyt|
 c6 B2 A4 G4 | F4 E4 D8 | C4 c8 B4 | A4 G4 F6 E2 | D2 C2 D4 C2 D2 E2 F2 | G4 F8 E4 | F8 z4 C4 | %21
w: grot ge- acht, gy|zyt grot ge-|* gy zyt|grot ge- acht, _|_ _ _ gy _ _ _|zyt grot ge-|acht, zyt|
 D6 E2 F4 C4 | F4 F2 G2 A6 G2 | F4 E4 A4 F4 | G8 z4 c4 | A4 d4 c2 B2 A2 G2 | A4 d8 B4 | c4 F4 G8 | %28
w: grot ge- acht, u|goet- heit te pre- ken|in den da- ge-|raet, te|pre- ken in den da- ge-|raet, in den|da- ge- raet,|
 C4 F4 F4 E4 | A8 G8 | A8 z4 F4 | F2 F2 F2 F2 G4 F4 | c6 B2 A4 G4 | F4 E4 D8 | C4 c8 B4 | %35
w: in den da- *|ge- raet,|_ u|war- heit te ver- tel- len|in _ _ der|nacht, u war-|heit te ver-|
 A4 G4 F6 E2 | D2 C2 D4 C2 D2 E2 F2 | G4 F8 E4 | F4 c4 c4 c2 A2 | B6 c2 d4 c4 | %40
w: tel- len in _|_ _ der nacht, _ _ _|_ in der|nacht. Met her- pen ge-|clanck, met lof en|
 B2 A2 A2 F2 G2 F2 F2 D2 | E4 A4 B4 A2 F2 | G2 F2 C2 C2 F4 F4 | F4 F2 D2 E4 G4 | %44
w: sang, met lof en sang, met lof en|sang, met her- pen ge-|clanck, met lof en sang, met|her- pen ge- clanck, met|
 A4 B4 G2 F2 F2 D2 | E4 F4 D4 D4 | C6 D2 E2 F2 G4 | F4 E4 A4 A4 | G8 F8 | z4 c4 A6 B2 | %50
w: lof en sang, met lof en|sang, met lof en|sang _ _ _ laet|ons, laet ons hier|pry- sen|laet ons hier|
 c2 A2 B4 c4 A4 | G4 G4 A6 B2 | c4 c4 F2 G2 A2 B2 | c4 c4 B4 G4 | c4 B4 A8 | z8 c8 | B4 G4 A4 F4 | %57
w: pry- * * sen o|Heer u gro- *|* te cracht, _ _ _|_ o Heer u|gro- te cracht,|o|Heer u gro- te|
 G4 G4 E4 F4 | D4 D4 C2 D2 E2 F2 | G2 A2 B6 AG F4 | G4 E4 G4 F4- | F4 E4 F8 | z4 F4 F6 G2 | %63
w: cracht, o Heer u|gro- te cracht, _ _ _|_ _ o _ _ _|Heer u gro- *|* te cracht,|o Heer _|
 A2 B2 c6 B2 B4- | B4 A2 G2 A8 |] %65
w: _ _ u _ gro-|* te _ cracht.|
V:4
 x16 | z16 | x16 | z16 | z16 | z16 | C8 F4 F2 F2 | F4 D4 F6 E2 | D2 C2 D4 B,8 | F,8 z8 | %10
w: ||||||This goet te be-|ly- den God om|zyn _ wel- daet,|_|
 z4 F,4 C4 C2 C2 | C4 A,4 C6 B,2 | A,2 G,2 F,4 B,4 A,2 G,2 | F,8 z8 | C8 C2 C2 C2 C2 | D4 C4 F8- | %16
w: this goet te be-|ly- den God om|zyn _ wel- daet, _ _|_|u naem te sin- gen|gy zyt grot|
 F4 E4 D8 | C8 z4 F4 | F2 F2 F2 F2 G6 F2 | E4 F4 C6 B,2 | A,2 G,2 F,4 B,4 A,4 | B,4 B,4 F,8- | %22
w: _ ge- acht,|_ u|naem te sin- gen gy zyt|grot ge- acht, _|_ _ _ gy zyt|grot ge- acht,|
 F,8 z8 | z16 | C8 F4 F2 F2 | F4 D4 F6 E2 | D2 C2 D4 B,8 | F,8 z8 | z4 F,4 C4 C2 C2 | %29
w: _||u goet- heit te|pre- ken in den|da- * ge- raet,|_|u goet- heit te|
 C4 A,4 C6 B,2 | A,2 G,2 F,4 B,4 A,2 G,2 | F,8 z8 | C8 C2 C2 C2 C2 | D4 C4 F8- | F4 E4 D8 | %35
w: pre- ken in den|da- * ge- raet, _ _|_|u war- heit te ver-|tel- len in|_ der nacht,|
 C8 z4 F4 | F2 F2 F2 F2 G6 F2 | E4 F4 C8 | F,8 z4 F,4 | B,4 B,2 A,2 B,4 F,4 | %40
w: _ u|war- heit te ver- tel- *|len in der|nacht. Met|her- pen ge- clanck, met|
 B,2 C2 D4 C2 A,2 B,4 | A,4 F,4 B,4 F,4 | z8 z4 F,4 | B,4 B,2 B,2 C4 C4 | %44
w: her- pen ge- clanck, met lof|en sang, en sang,|met|her- pen ge- clanck, met|
 F4 D2 B,2 C2 A,2 B,2 B,2 | C4 F,4 G,8 | z4 F,4 C8 | z4 C4 A,6 B,2 | C8 F,8- | F,8 z8 | z16 | %51
w: her- pen ge- clanck, met lof en|sang, en sang|laet ons,|laet ons hier|pry- sen|_||
 z8 F8 | E4 C4 D4 F4 | C4 A,4 B,4 C4 | F,4 F4 E4 C4 | D4 F4 C6 B,A, | G,8 F,8 | z16 | F8 E4 C4 | %59
w: o|Heer u gro- te|cracht, u gro- te|cracht, o Heer u|gro- te cracht, _ _|_ _||o Heer u|
 _E6 DC B,4 D4 | C4 C4 B,4 D4 | C4 C4 F,4 F,4 | B,6 C2 D2 E2 F4 | z4 F,4 B,4 B,4 | F,16 |] %65
w: gro- * * * te|cracht, o Heer u|gro- te cracht, o|Heer _ _ _ _|u gro- te|cracht.|

